static/img/icons/stackoverflow.svg

<svg version="1.1" xmlns="http://www.w3.org/2000/svg" width="32" height="32" viewBox="0 0 32 32">
<title>My StackOverflow profile</title>
<path fill="currentColor" d="M32 20v12h-32v-12h4v8h24v-8zM6 22h20v4h-20zM6.473 17.671l0.866-3.905 19.526 4.328-0.866 3.905zM8.739 9.642l1.69-3.625 18.126 8.452-1.69 3.625zM30.991 11.296l-2.435 3.173-15.867-12.175 1.761-2.294h1.82z"></path>
</svg>

<svg xmlns="http://www.w3.org/2000/svg" width="32" height="32"><path fill="currentColor" d="M32 20v12H0V20h4v8h24v-8zM6 22h20v4H6zm.473-4.329l.866-3.905 19.526 4.328-.866 3.905zm2.266-8.029l1.69-3.625 18.126 8.452-1.69 3.625zm22.252 1.654l-2.435 3.173L12.689 2.294 14.45 0h1.82z"/></svg>
